my-site/themes/moving-test/assets/images/stars.svg

<svg width="135" height="31" viewBox="0 0 135 31" fill="none" xmlns="http://www.w3.org/2000/svg">
<path d="M12.8992 0.617997C13.5371 -0.589991 15.1271 0.157373 15.2274 1.2826C15.4874 4.20183 16.1921 7.05001 17.0482 9.84719C19.4215 9.89317 21.7948 9.93413 24.1682 9.9475C25.5509 9.95586 25.8869 12.2155 24.4683 12.4153C22.3491 12.7129 20.438 13.4946 18.6198 14.5529C19.48 16.9981 20.3603 19.4375 21.1052 21.9212C21.519 23.3031 21.8918 24.6983 22.1903 26.1103C22.4327 27.2564 22.7269 28.533 21.9579 29.5445C21.519 30.1205 20.5375 30.4657 19.9849 29.771C17.3132 26.4154 14.4474 23.2245 11.4262 20.1815C8.29296 22.9737 5.1965 25.8052 2.17194 28.716C1.33847 29.5186 -0.424608 28.6742 0.0936978 27.4671C1.90944 23.2312 3.80962 19.0312 5.77918 14.8639C4.56701 13.8014 3.34147 12.7547 2.0875 11.7407C1.20137 11.0242 2.01477 9.60726 3.0029 9.61228C4.76765 9.62315 6.53156 9.65073 8.29547 9.68083C9.79354 6.64121 11.3175 3.61498 12.8992 0.617997ZM38.8624 4.54425C39.0003 3.35549 40.8161 2.88232 41.4589 3.939C42.6636 5.91943 43.6517 7.9843 44.4885 10.1043C47.6385 10.5566 50.7751 11.1008 53.8908 11.7763C55.3169 12.0856 55.4691 13.9565 54.1658 14.5517C51.6997 15.6778 49.3263 16.9836 47.0416 18.4248C47.7923 21.5948 48.3691 24.8167 48.9259 28.0227C49.0488 28.7282 48.3733 29.621 47.6301 29.6052C45.332 29.5537 43.7522 28.087 42.2637 26.5191L41.9216 26.1561C41.8079 26.0349 41.6945 25.9137 41.581 25.7931C40.9674 25.1411 40.378 24.4673 39.7862 23.796C37.8525 25.4637 36.01 27.2394 34.2971 29.1429C33.243 30.3149 31.082 29.1487 31.8636 27.6231C33.3015 24.8167 34.5312 21.9242 35.5595 18.9649C32.7439 15.8258 31.4097 13.5435 27.4797 11.8766C26.9522 11.7846 26.6513 11.4494 26.5459 11.0348C26.2316 10.147 26.974 8.96657 28.0515 9.05853C28.0858 9.05853 28.1176 9.05184 28.1527 9.05435C32.0642 9.27337 34.2252 8.90471 38.1201 9.31517C38.4177 7.73601 38.676 6.14765 38.8624 4.54425ZM69.2868 3.10896C69.8494 2.10579 71.1435 2.58731 71.2204 3.68077C71.472 7.25959 71.5289 8.30623 72.9877 11.6702C75.1027 11.7346 77.2177 11.7806 79.3336 11.7814C79.8611 11.7814 80.1771 12.1358 80.2883 12.563C80.4705 13.0028 80.4128 13.5244 79.953 13.8279C79.8795 13.8906 79.7934 13.9382 79.6989 13.975C77.7561 14.9924 75.7573 16.044 73.7869 17.1868C74.1756 19.403 74.6463 21.6025 75.2582 23.7718C75.5491 24.8017 74.5025 25.4229 73.7342 25.0509C71.5122 23.9741 69.291 22.884 67.1333 21.6601C63.6933 24.4105 61.8265 24.5777 58.853 28.9983C58.3054 29.8134 56.8424 29.6278 56.957 28.7275C57.6767 23.0679 58.2243 21.6025 60.6654 17.2529C59.0996 15.983 57.5965 14.6212 56.1803 13.1582C55.5208 12.4769 56.034 11.2246 56.9143 11.2255C59.2659 11.2263 61.6175 11.2831 63.9683 11.3584C66.0198 7.69597 67.2353 6.77138 69.2868 3.10896ZM91.3933 3.72691C91.782 2.70368 93.5836 2.38099 93.8109 3.72691C94.1412 5.67558 94.5265 7.61337 94.9596 9.53863C97.5837 9.20591 100.221 9.05376 102.829 9.13151C103.018 9.08553 103.217 9.10225 103.41 9.16244C104.204 9.30288 104.532 10.0828 104.392 10.7349C104.389 10.75 104.384 10.7658 104.38 10.7809C104.364 10.8444 104.344 10.9055 104.319 10.9656C104.312 10.9849 104.309 11.0033 104.3 11.0225C103.517 12.7923 101.809 14.185 100.35 15.3838C99.3167 16.2331 98.52 16.8158 97.4441 17.6083C98.4515 20.8795 99.3267 24.3212 100.636 27.4912C101.217 28.899 99.2816 29.3647 98.3436 28.4568C95.7722 25.9681 93.5902 24.0813 91.5923 21.7882C88.8034 24.1281 87.3973 26.0316 84.4622 28.2043C83.6003 28.843 82.2469 27.7705 82.6206 26.7882C84.02 23.1091 84.341 21.2875 85.7404 17.6083C84.8543 17.0156 82.4985 14.6155 81.5146 14.1474C80.4888 13.6608 80.8617 12.1502 81.8138 11.856C83.2668 11.407 87.2577 11.0049 88.7583 10.653C89.6369 8.34485 90.5147 6.03588 91.3933 3.72691ZM118.038 3.01399C118.688 1.9615 120.5 2.44636 120.63 3.63596C120.806 5.24103 121.053 6.83106 121.341 8.4119C125.237 8.02735 129.148 7.75649 133.06 7.56338C133.095 7.56171 133.127 7.5684 133.161 7.5684C134.239 7.48396 134.974 8.66938 134.654 9.55468C134.546 9.96932 134.242 10.302 133.714 10.3907C129.773 12.03 126.672 14.9584 123.836 18.0791C124.844 21.0452 126.054 23.946 127.473 26.7624C128.245 28.2923 126.076 29.4443 125.03 28.2655C123.329 26.3503 121.499 24.5621 119.577 22.8818C118.98 23.5489 118.386 24.2186 117.768 24.8664C116.054 26.6646 114.346 28.5957 111.694 28.6375C110.95 28.6492 110.281 27.7514 110.409 27.0467C110.987 23.8449 111.586 20.6264 112.358 17.4614C110.082 16.0051 107.718 14.6834 105.26 13.5406C103.961 12.937 104.125 11.067 105.554 10.7668C108.674 10.1123 111.814 9.58979 114.967 9.15843C115.818 7.0434 116.82 4.98606 118.038 3.01399Z" fill="#D8D8D8"/>
<mask id="mask0_8090_1728" style="mask-type:luminance" maskUnits="userSpaceOnUse" x="0" y="0" width="135" height="31">
<path d="M12.8992 0.617997C13.5371 -0.589991 15.1271 0.157373 15.2274 1.2826C15.4874 4.20183 16.1921 7.05001 17.0482 9.84719C19.4215 9.89317 21.7948 9.93413 24.1682 9.9475C25.5509 9.95586 25.8869 12.2155 24.4683 12.4153C22.3491 12.7129 20.438 13.4946 18.6198 14.5529C19.48 16.9981 20.3603 19.4375 21.1052 21.9212C21.519 23.3031 21.8918 24.6983 22.1903 26.1103C22.4327 27.2564 22.7269 28.533 21.9579 29.5445C21.519 30.1205 20.5375 30.4657 19.9849 29.771C17.3132 26.4154 14.4474 23.2245 11.4262 20.1815C8.29296 22.9737 5.1965 25.8052 2.17194 28.716C1.33847 29.5186 -0.424608 28.6742 0.0936978 27.4671C1.90944 23.2312 3.80962 19.0312 5.77918 14.8639C4.56701 13.8014 3.34147 12.7547 2.0875 11.7407C1.20137 11.0242 2.01477 9.60726 3.0029 9.61228C4.76765 9.62315 6.53156 9.65073 8.29547 9.68083C9.79354 6.64121 11.3175 3.61498 12.8992 0.617997ZM38.8624 4.54425C39.0003 3.35549 40.8161 2.88232 41.4589 3.939C42.6636 5.91943 43.6517 7.9843 44.4885 10.1043C47.6385 10.5566 50.7751 11.1008 53.8908 11.7763C55.3169 12.0856 55.4691 13.9565 54.1658 14.5517C51.6997 15.6778 49.3263 16.9836 47.0416 18.4248C47.7923 21.5948 48.3691 24.8167 48.9259 28.0227C49.0488 28.7282 48.3733 29.621 47.6301 29.6052C45.332 29.5537 43.7522 28.087 42.2637 26.5191L41.9216 26.1561C41.8079 26.0349 41.6945 25.9137 41.581 25.7931C40.9674 25.1411 40.378 24.4673 39.7862 23.796C37.8525 25.4637 36.01 27.2394 34.2971 29.1429C33.243 30.3149 31.082 29.1487 31.8636 27.6231C33.3015 24.8167 34.5312 21.9242 35.5595 18.9649C32.7439 15.8258 31.4097 13.5435 27.4797 11.8766C26.9522 11.7846 26.6513 11.4494 26.5459 11.0348C26.2316 10.147 26.974 8.96657 28.0515 9.05853C28.0858 9.05853 28.1176 9.05184 28.1527 9.05435C32.0642 9.27337 34.2252 8.90471 38.1201 9.31517C38.4177 7.73601 38.676 6.14765 38.8624 4.54425ZM69.2868 3.10896C69.8494 2.10579 71.1435 2.58731 71.2204 3.68077C71.472 7.25959 71.5289 8.30623 72.9877 11.6702C75.1027 11.7346 77.2177 11.7806 79.3336 11.7814C79.8611 11.7814 80.1771 12.1358 80.2883 12.563C80.4705 13.0028 80.4128 13.5244 79.953 13.8279C79.8795 13.8906 79.7934 13.9382 79.6989 13.975C77.7561 14.9924 75.7573 16.044 73.7869 17.1868C74.1756 19.403 74.6463 21.6025 75.2582 23.7718C75.5491 24.8017 74.5025 25.4229 73.7342 25.0509C71.5122 23.9741 69.291 22.884 67.1333 21.6601C63.6933 24.4105 61.8265 24.5777 58.853 28.9983C58.3054 29.8134 56.8424 29.6278 56.957 28.7275C57.6767 23.0679 58.2243 21.6025 60.6654 17.2529C59.0996 15.983 57.5965 14.6212 56.1803 13.1582C55.5208 12.4769 56.034 11.2246 56.9143 11.2255C59.2659 11.2263 61.6175 11.2831 63.9683 11.3584C66.0198 7.69597 67.2353 6.77138 69.2868 3.10896ZM91.3933 3.72691C91.782 2.70368 93.5836 2.38099 93.8109 3.72691C94.1412 5.67558 94.5265 7.61337 94.9596 9.53863C97.5837 9.20591 100.221 9.05376 102.829 9.13151C103.018 9.08553 103.217 9.10225 103.41 9.16244C104.204 9.30288 104.532 10.0828 104.392 10.7349C104.389 10.75 104.384 10.7658 104.38 10.7809C104.364 10.8444 104.344 10.9055 104.319 10.9656C104.312 10.9849 104.309 11.0033 104.3 11.0225C103.517 12.7923 101.809 14.185 100.35 15.3838C99.3167 16.2331 98.52 16.8158 97.4441 17.6083C98.4515 20.8795 99.3267 24.3212 100.636 27.4912C101.217 28.899 99.2816 29.3647 98.3436 28.4568C95.7722 25.9681 93.5902 24.0813 91.5923 21.7882C88.8034 24.1281 87.3973 26.0316 84.4622 28.2043C83.6003 28.843 82.2469 27.7705 82.6206 26.7882C84.02 23.1091 84.341 21.2875 85.7404 17.6083C84.8543 17.0156 82.4985 14.6155 81.5146 14.1474C80.4888 13.6608 80.8617 12.1502 81.8138 11.856C83.2668 11.407 87.2577 11.0049 88.7583 10.653C89.6369 8.34485 90.5147 6.03588 91.3933 3.72691ZM118.038 3.01399C118.688 1.9615 120.5 2.44636 120.63 3.63596C120.806 5.24103 121.053 6.83106 121.341 8.4119C125.237 8.02735 129.148 7.75649 133.06 7.56338C133.095 7.56171 133.127 7.5684 133.161 7.5684C134.239 7.48396 134.974 8.66938 134.654 9.55468C134.546 9.96932 134.242 10.302 133.714 10.3907C129.773 12.03 126.672 14.9584 123.836 18.0791C124.844 21.0452 126.054 23.946 127.473 26.7624C128.245 28.2923 126.076 29.4443 125.03 28.2655C123.329 26.3503 121.499 24.5621 119.577 22.8818C118.98 23.5489 118.386 24.2186 117.768 24.8664C116.054 26.6646 114.346 28.5957 111.694 28.6375C110.95 28.6492 110.281 27.7514 110.409 27.0467C110.987 23.8449 111.586 20.6264 112.358 17.4614C110.082 16.0051 107.718 14.6834 105.26 13.5406C103.961 12.937 104.125 11.067 105.554 10.7668C108.674 10.1123 111.814 9.58979 114.967 9.15843C115.818 7.0434 116.82 4.98606 118.038 3.01399Z" fill="white"/>
</mask>
<g mask="url(#mask0_8090_1728)">
<path d="M135.428 0.000488281H0V30.9317H135.428V0.000488281Z" fill="#F2A900"/>
</g>
</svg>

<svg xmlns="http://www.w3.org/2000/svg" width="135" height="31" fill="none" viewBox="0 0 135 31"><path fill="#d8d8d8" d="M12.9.618c.637-1.208 2.227-.46 2.327.665.26 2.919.965 5.767 1.821 8.564 2.374.046 4.747.087 7.12.1 1.383.009 1.719 2.269.3 2.468-2.119.298-4.03 1.08-5.848 2.138.86 2.445 1.74 4.884 2.485 7.368a52 52 0 0 1 1.085 4.19c.243 1.145.537 2.422-.232 3.433-.439.576-1.42.922-1.973.227a118 118 0 0 0-8.559-9.59 328 328 0 0 0-9.254 8.535c-.834.803-2.597-.042-2.078-1.249a378 378 0 0 1 5.685-12.603 122 122 0 0 0-3.691-3.123c-.887-.717-.073-2.134.915-2.129a485 485 0 0 1 5.292.069A367 367 0 0 1 12.9.618m25.962 3.926C39 3.355 40.816 2.882 41.46 3.94c1.205 1.98 2.193 4.045 3.03 6.165 3.15.453 6.286.997 9.402 1.672 1.426.31 1.578 2.18.275 2.776a60 60 0 0 0-7.124 3.873c.75 3.17 1.327 6.392 1.884 9.598.123.705-.553 1.598-1.296 1.582-2.298-.051-3.878-1.518-5.366-3.086l-.342-.363-.341-.363c-.614-.652-1.203-1.326-1.795-1.997a61 61 0 0 0-5.489 5.347c-1.054 1.172-3.215.006-2.433-1.52a68 68 0 0 0 3.695-8.658c-2.815-3.14-4.15-5.421-8.08-7.088-.527-.092-.828-.428-.933-.842-.314-.888.428-2.068 1.506-1.976.034 0 .066-.007.1-.005 3.912.22 6.073-.15 9.968.261.298-1.579.556-3.167.742-4.77M69.287 3.11c.562-1.003 1.856-.522 1.933.572.252 3.579.309 4.625 1.768 7.99 2.115.064 4.23.11 6.346.11.527 0 .843.355.954.782.183.44.125.961-.335 1.265a.9.9 0 0 1-.254.147c-1.943 1.017-3.942 2.069-5.912 3.212.389 2.216.86 4.415 1.471 6.585.291 1.03-.755 1.65-1.524 1.279-2.222-1.077-4.443-2.167-6.6-3.39-3.44 2.75-5.307 2.917-8.281 7.337-.548.815-2.01.63-1.896-.27.72-5.66 1.267-7.126 3.708-11.475a51 51 0 0 1-4.485-4.095c-.66-.681-.146-1.933.734-1.932 2.352 0 4.703.057 7.054.132 2.052-3.662 3.267-4.587 5.319-8.249m22.106.618c.389-1.023 2.19-1.346 2.418 0q.497 2.923 1.149 5.812c2.624-.333 5.261-.485 7.869-.407.189-.046.388-.03.581.03.794.14 1.122.92.982 1.573l-.012.046a1.3 1.3 0 0 1-.061.185c-.007.019-.01.037-.019.057-.783 1.77-2.491 3.162-3.95 4.36-1.033.85-1.83 1.433-2.906 2.225 1.007 3.271 1.883 6.713 3.192 9.883.581 1.408-1.354 1.874-2.292.966-2.572-2.489-4.754-4.376-6.752-6.669-2.789 2.34-4.195 4.244-7.13 6.416-.862.639-2.215-.434-1.841-1.416 1.399-3.679 1.72-5.5 3.12-9.18-.887-.592-3.242-2.992-4.226-3.46-1.026-.487-.653-1.998.299-2.292 1.453-.449 5.444-.851 6.944-1.203zm26.645-.713c.65-1.052 2.462-.568 2.592.622.176 1.605.423 3.195.711 4.776 3.896-.385 7.807-.656 11.719-.849.035-.001.067.005.101.005 1.078-.084 1.813 1.101 1.493 1.987-.108.414-.412.747-.94.836-3.941 1.639-7.042 4.567-9.878 7.688a68 68 0 0 0 3.637 8.683c.772 1.53-1.397 2.682-2.443 1.503a61 61 0 0 0-5.453-5.383c-.597.667-1.191 1.337-1.809 1.984-1.714 1.799-3.422 3.73-6.074 3.771-.744.012-1.413-.886-1.285-1.59.578-3.202 1.177-6.42 1.949-9.586a60.6 60.6 0 0 0-7.098-3.92c-1.299-.604-1.135-2.474.294-2.774 3.12-.655 6.26-1.177 9.413-1.609.851-2.115 1.853-4.172 3.071-6.144"/><mask id="a" width="135" height="31" x="0" y="0" maskUnits="userSpaceOnUse" style="mask-type:luminance"><path fill="#fff" d="M12.9.618c.637-1.208 2.227-.46 2.327.665.26 2.919.965 5.767 1.821 8.564 2.374.046 4.747.087 7.12.1 1.383.009 1.719 2.269.3 2.468-2.119.298-4.03 1.08-5.848 2.138.86 2.445 1.74 4.884 2.485 7.368a52 52 0 0 1 1.085 4.19c.243 1.145.537 2.422-.232 3.433-.439.576-1.42.922-1.973.227a118 118 0 0 0-8.559-9.59 328 328 0 0 0-9.254 8.535c-.834.803-2.597-.042-2.078-1.249a378 378 0 0 1 5.685-12.603 122 122 0 0 0-3.691-3.123c-.887-.717-.073-2.134.915-2.129a485 485 0 0 1 5.292.069A367 367 0 0 1 12.9.618m25.962 3.926C39 3.355 40.816 2.882 41.46 3.94c1.205 1.98 2.193 4.045 3.03 6.165 3.15.453 6.286.997 9.402 1.672 1.426.31 1.578 2.18.275 2.776a60 60 0 0 0-7.124 3.873c.75 3.17 1.327 6.392 1.884 9.598.123.705-.553 1.598-1.296 1.582-2.298-.051-3.878-1.518-5.366-3.086l-.342-.363-.341-.363c-.614-.652-1.203-1.326-1.795-1.997a61 61 0 0 0-5.489 5.347c-1.054 1.172-3.215.006-2.433-1.52a68 68 0 0 0 3.695-8.658c-2.815-3.14-4.15-5.421-8.08-7.088-.527-.092-.828-.428-.933-.842-.314-.888.428-2.068 1.506-1.976.034 0 .066-.007.1-.005 3.912.22 6.073-.15 9.968.261.298-1.579.556-3.167.742-4.77M69.287 3.11c.562-1.003 1.856-.522 1.933.572.252 3.579.309 4.625 1.768 7.99 2.115.064 4.23.11 6.346.11.527 0 .843.355.954.782.183.44.125.961-.335 1.265a.9.9 0 0 1-.254.147c-1.943 1.017-3.942 2.069-5.912 3.212.389 2.216.86 4.415 1.471 6.585.291 1.03-.755 1.65-1.524 1.279-2.222-1.077-4.443-2.167-6.6-3.39-3.44 2.75-5.307 2.917-8.281 7.337-.548.815-2.01.63-1.896-.27.72-5.66 1.267-7.126 3.708-11.475a51 51 0 0 1-4.485-4.095c-.66-.681-.146-1.933.734-1.932 2.352 0 4.703.057 7.054.132 2.052-3.662 3.267-4.587 5.319-8.249m22.106.618c.389-1.023 2.19-1.346 2.418 0q.497 2.923 1.149 5.812c2.624-.333 5.261-.485 7.869-.407.189-.046.388-.03.581.03.794.14 1.122.92.982 1.573l-.012.046a1.3 1.3 0 0 1-.061.185c-.007.019-.01.037-.019.057-.783 1.77-2.491 3.162-3.95 4.36-1.033.85-1.83 1.433-2.906 2.225 1.007 3.271 1.883 6.713 3.192 9.883.581 1.408-1.354 1.874-2.292.966-2.572-2.489-4.754-4.376-6.752-6.669-2.789 2.34-4.195 4.244-7.13 6.416-.862.639-2.215-.434-1.841-1.416 1.399-3.679 1.72-5.5 3.12-9.18-.887-.592-3.242-2.992-4.226-3.46-1.026-.487-.653-1.998.299-2.292 1.453-.449 5.444-.851 6.944-1.203zm26.645-.713c.65-1.052 2.462-.568 2.592.622.176 1.605.423 3.195.711 4.776 3.896-.385 7.807-.656 11.719-.849.035-.001.067.005.101.005 1.078-.084 1.813 1.101 1.493 1.987-.108.414-.412.747-.94.836-3.941 1.639-7.042 4.567-9.878 7.688a68 68 0 0 0 3.637 8.683c.772 1.53-1.397 2.682-2.443 1.503a61 61 0 0 0-5.453-5.383c-.597.667-1.191 1.337-1.809 1.984-1.714 1.799-3.422 3.73-6.074 3.771-.744.012-1.413-.886-1.285-1.59.578-3.202 1.177-6.42 1.949-9.586a60.6 60.6 0 0 0-7.098-3.92c-1.299-.604-1.135-2.474.294-2.774 3.12-.655 6.26-1.177 9.413-1.609.851-2.115 1.853-4.172 3.071-6.144"/></mask><g mask="url(#a)"><path fill="#f2a900" d="M135.428 0H0v30.932h135.428z"/></g></svg>
